svgs/light/phone-intercom.svg

<svg xmlns="http://www.w3.org/2000/svg" viewBox="0 0 512 512"><!--! Font Awesome Pro 6.1.1 by @fontawesome - https://fontawesome.com License - https://fontawesome.com/license (Commercial License) Copyright 2022 Fonticons, Inc. --><path d="M80 32h-32C21.5 32 0 53.5 0 80v352C0 458.5 21.5 480 48 480h32C106.5 480 128 458.5 128 432v-352C128 53.5 106.5 32 80 32zM96 432C96 440.8 88.83 448 80 448h-32C39.17 448 32 440.8 32 432v-352C32 71.17 39.17 64 48 64h32C88.83 64 96 71.17 96 80V432zM272 304C245.5 304 224 325.5 224 352s21.5 48 48 48S320 378.5 320 352S298.5 304 272 304zM272 368c-8.832 0-16-7.168-16-16s7.168-16 16-16S288 343.2 288 352S280.8 368 272 368zM424 96h-176C234.8 96 224 106.8 224 120v112C224 245.2 234.8 256 248 256h176C437.2 256 448 245.2 448 232v-112C448 106.8 437.2 96 424 96zM416 224h-160V128h160V224zM448 32H224C188.6 32 160 60.64 160 96v320c0 35.36 28.64 64 64 64h224c35.36 0 64-28.64 64-64V96C512 60.64 483.4 32 448 32zM480 416c0 17.66-14.34 32-32 32H224c-17.66 0-32-14.34-32-32V96c0-17.66 14.34-32 32-32h224c17.66 0 32 14.34 32 32V416zM432 304h-64C359.2 304 352 311.2 352 320s7.168 16 16 16h64c8.832 0 16-7.168 16-16S440.8 304 432 304zM432 368h-64c-8.832 0-16 7.168-16 16s7.168 16 16 16h64c8.832 0 16-7.168 16-16S440.8 368 432 368z"/></svg>

<svg xmlns="http://www.w3.org/2000/svg" viewBox="0 0 512 512"><!--! Font Awesome Pro 6.4.2 by @fontawesome - https://fontawesome.com License - https://fontawesome.com/license (Commercial License) Copyright 2023 Fonticons, Inc. --><path d="M80 64c8.8 0 16 7.2 16 16V432c0 8.8-7.2 16-16 16H48c-8.8 0-16-7.2-16-16V80c0-8.8 7.2-16 16-16H80zM48 32C21.5 32 0 53.5 0 80V432c0 26.5 21.5 48 48 48H80c26.5 0 48-21.5 48-48V80c0-26.5-21.5-48-48-48H48zM448 64c17.7 0 32 14.3 32 32V416c0 17.7-14.3 32-32 32H224c-17.7 0-32-14.3-32-32V96c0-17.7 14.3-32 32-32H448zM224 32c-35.3 0-64 28.7-64 64V416c0 35.3 28.7 64 64 64H448c35.3 0 64-28.7 64-64V96c0-35.3-28.7-64-64-64H224zm32 320a16 16 0 1 1 32 0 16 16 0 1 1 -32 0zm64 0a48 48 0 1 0 -96 0 48 48 0 1 0 96 0zm32-32c0 8.8 7.2 16 16 16h64c8.8 0 16-7.2 16-16s-7.2-16-16-16H368c-8.8 0-16 7.2-16 16zm0 64c0 8.8 7.2 16 16 16h64c8.8 0 16-7.2 16-16s-7.2-16-16-16H368c-8.8 0-16 7.2-16 16zM256 128H416v96H256V128zm-32 0v96c0 17.7 14.3 32 32 32H416c17.7 0 32-14.3 32-32V128c0-17.7-14.3-32-32-32H256c-17.7 0-32 14.3-32 32z"/></svg>
